assets/symbols/mulberry/next_month.svg

<svg height="850.394" viewBox="0 0 850.394 850.394" width="850.394" xmlns="http://www.w3.org/2000/svg"><path d="m757.81 328.2v64.2h-.12v-.23h-291.5v-63.97z" fill="#ed1e29"/><g fill="#fff"><path d="m684.81 610.79h72.881v72.88h-72.881zm0-72.87h72.881v72.87h-72.881z"/><path d="m684.81 465.04h72.881v72.88h-72.881zm0-72.64h72.881v72.64h-72.881zm-72.87 218.39h72.869v72.88h-72.869zm0-72.87h72.869v72.87h-72.869z"/><path d="m611.94 465.04h72.869v72.88h-72.869zm0-72.64h72.869v72.64h-72.869zm-72.88 218.39h72.881v72.88h-72.881z"/><path d="m539.06 537.92h72.881v72.87h-72.881z"/><path d="m539.06 465.04h72.881v72.88h-72.881zm0-72.64h72.881v72.64h-72.881zm-72.87 218.39h72.869v72.88h-72.869zm0-72.87h72.869v72.87h-72.869z"/><path d="m466.19 465.04h72.869v72.88h-72.869zm0-72.64h72.869v72.64h-72.869z"/></g><path d="m381.55 328.2v64.2h-.12v-.23h-291.5v-63.97z" fill="#ed1e29"/><path d="m308.55 610.79h72.88v72.88h-72.88zm0-72.87h72.88v72.87h-72.88z" fill="#fff"/><path d="m308.55 465.04h72.88v72.88h-72.88zm0-72.64h72.88v72.64h-72.88zm-72.87 218.39h72.87v72.88h-72.87zm0-72.87h72.87v72.87h-72.87z" fill="#fff"/><path d="m235.68 465.04h72.87v72.88h-72.87zm0-72.64h72.87v72.64h-72.87zm-72.87 218.39h72.87v72.88h-72.87zm0-72.87h72.87v72.87h-72.87z" fill="#fff"/><path d="m162.81 465.04h72.87v72.88h-72.87zm0-72.64h72.87v72.64h-72.87zm-72.88 218.39h72.88v72.88h-72.88zm0-72.87h72.88v72.87h-72.88z" fill="#fff"/><path d="m89.93 465.04h72.88v72.88h-72.88zm0-72.64h72.88v72.64h-72.88z" fill="#fff"/><g fill="none" stroke="#231f20" stroke-width="21"><path d="m89.93 392.17h291.5v291.5h-291.5v-291.27m0 218.39h291.5m-291.5-72.87h291.5m-291.5-72.88h291.5m-72.88-72.87v291.5m-72.87-291.5v291.5m-72.87-291.5v291.5"/><path d="m89.93 392.17v-63.97h291.62v64.2h-291.62z"/><path d="m101.7 312.58v11.41m26.25-11.41v11.41m26.87-11.37v11.42m26.24-11.33v11.41m26.87-11.23v11.41m27.75-11.33v11.41m26.24-11.41v11.41m26.87-11.37v11.42m26.24-11.33v11.41m26.87-11.23v11.41m28.05-12.06v11.41" stroke-linecap="round" stroke-linejoin="round"/><path d="m466.19 392.17h291.5v291.5h-291.5v-291.27m0 218.39h291.5m-291.5-72.87h291.5m-291.5-72.88h291.5m-72.88-72.87v291.5m-72.87-291.5v291.5m-72.88-291.5v291.5"/><path d="m466.19 392.17v-63.97h291.62v64.2h-291.62z"/><path d="m477.96 312.58v11.41m26.25-11.41v11.41m26.87-11.37v11.42m26.25-11.33v11.41m26.86-11.23v11.41m27.75-11.33v11.41m26.24-11.41v11.41m26.87-11.37v11.42m26.24-11.33v11.41m26.88-11.23v11.41m28.04-12.06v11.41" stroke-linecap="round" stroke-linejoin="round"/><path d="m538.64 165.3-31.49 94.28-89.56-43.27"/><path d="m301.92 220.72c10.16-42.27 52.37-77.54 95.86-77.54 54.98 0 102.97 44.91 102.97 109.03"/></g><path d="m0 0h850.394v850.394h-850.394z" fill="none"/></svg>

<svg xmlns="http://www.w3.org/2000/svg" width="850.394" height="850.394" viewBox="0 0 850.394 850.394" overflow="visible"><path fill="#ed1e29" d="M757.81 328.2v64.2h-.12v-.23h-291.5V328.2z"/><path fill="#fff" d="M684.81 610.79h72.881v72.88H684.81zM684.81 537.92h72.881v72.87H684.81z"/><path fill="#fff" d="M684.81 465.04h72.881v72.88H684.81zM684.81 392.4h72.881v72.64H684.81zM611.94 610.79h72.869v72.88H611.94zM611.94 537.92h72.869v72.87H611.94z"/><path fill="#fff" d="M611.94 465.04h72.869v72.88H611.94zM611.94 392.4h72.869v72.64H611.94zM539.06 610.79h72.881v72.88H539.06z"/><path fill="#fff" d="M539.06 537.92h72.881v72.87H539.06z"/><path fill="#fff" d="M539.06 465.04h72.881v72.88H539.06zM539.06 392.4h72.881v72.64H539.06zM466.19 610.79h72.869v72.88H466.19zM466.19 537.92h72.869v72.87H466.19z"/><path fill="#fff" d="M466.19 465.04h72.869v72.88H466.19zM466.19 392.4h72.869v72.64H466.19z"/><path fill="#ed1e29" d="M381.55 328.2v64.2h-.12v-.23H89.93V328.2z"/><path fill="#fff" d="M308.55 610.79h72.88v72.88h-72.88zM308.55 537.92h72.88v72.87h-72.88z"/><path fill="#fff" d="M308.55 465.04h72.88v72.88h-72.88zM308.55 392.4h72.88v72.64h-72.88zM235.68 610.79h72.87v72.88h-72.87zM235.68 537.92h72.87v72.87h-72.87z"/><path fill="#fff" d="M235.68 465.04h72.87v72.88h-72.87zM235.68 392.4h72.87v72.64h-72.87zM162.81 610.79h72.87v72.88h-72.87zM162.81 537.92h72.87v72.87h-72.87z"/><path fill="#fff" d="M162.81 465.04h72.87v72.88h-72.87zM162.81 392.4h72.87v72.64h-72.87zM89.93 610.79h72.88v72.88H89.93zM89.93 537.92h72.88v72.87H89.93z"/><path fill="#fff" d="M89.93 465.04h72.88v72.88H89.93zM89.93 392.4h72.88v72.64H89.93z"/><g fill="none" stroke="#231f20" stroke-width="21"><path d="M89.93 392.17h291.5v291.5H89.93V392.4M89.93 610.79h291.5M89.93 537.92h291.5M89.93 465.04h291.5M308.55 392.17v291.5M235.68 392.17v291.5M162.81 392.17v291.5"/><path d="M89.93 392.17V328.2h291.62v64.2H89.93z"/><path stroke-linecap="round" stroke-linejoin="round" d="M101.7 312.58v11.41M127.95 312.58v11.41M154.82 312.62v11.42M181.06 312.71v11.41M207.93 312.89v11.41M235.68 312.97v11.41M261.92 312.97v11.41M288.79 313.01v11.42M315.03 313.1v11.41M341.9 313.28v11.41M369.95 312.63v11.41"/><path d="M466.19 392.17h291.5v291.5h-291.5V392.4M466.19 610.79h291.5M466.19 537.92h291.5M466.19 465.04h291.5M684.81 392.17v291.5M611.94 392.17v291.5M539.06 392.17v291.5"/><path d="M466.19 392.17V328.2h291.62v64.2H466.19z"/><path stroke-linecap="round" stroke-linejoin="round" d="M477.96 312.58v11.41M504.21 312.58v11.41M531.08 312.62v11.42M557.33 312.71v11.41M584.19 312.89v11.41M611.94 312.97v11.41M638.18 312.97v11.41M665.05 313.01v11.42M691.29 313.1v11.41M718.17 313.28v11.41M746.21 312.63v11.41"/><path d="M538.64 165.3l-31.49 94.28-89.56-43.27"/><path d="M301.92 220.72c10.16-42.27 52.37-77.54 95.86-77.54 54.98 0 102.97 44.91 102.97 109.03"/></g><path fill="none" d="M0 0h850.394v850.394H0z"/></svg>
